X: 5842
T: Calliope House
R: jig
M: 6/8
K: Dmajor
V: 1
ee/f/g|:aa/a/a faa|eaa dd/e/f|gag fgf|efe edB|A>BA A2 F|
A2 B d2 e|1 fgf fed|e3 ee/f/g:|2 fgf efe|d3- dAB||
|:dAA fAA|eAA fed|Bee e2 d|efd BdB|ABA A2 F|
A2 B d2 e|1 f3 fed|e3- edc:|2 fgf efe|d3 ee/f/g||
V: 2
Ade|:f3 d3|A3 FGA|B3 ABA|GAG GAG|FGF F2 D|
F2 G A3|1 d3 FG^G|A3 Ade:|2 d2 A GAG|F3 DE=F||
|:FDD ADD|BDD ADD|GAG GEF|GAG GAG|FGF F2 D|
F2 G A3|1 D3 FG^G|A3 AGA:|2 A3 GAG|F3 Ade||

